!!!OTL: Die verkaufte Muellerin Odilia blind geboren war,
!!!ARE: Europa, Mitteleuropa, Deutschland (BRD), Rheinland und Elsass
!!!YOR: 4, S. 338
!!    1840 aufgezeichnet
!!!SCT: Q1086F
!!!YEM: Copyright 1995, estate of Helmut Schaffrath.
**kern
*ICvox
*Ivox
*M4/4
*k[f#]
*G:
{4d
=1
4g
8b
8b
4a
8dd
8cc
=2
4b
8a
8b
4g
8r}
{8b
=3
4a
8a
8g
8f#
8g
8a
8g
=4
4f#
8e
8e
4d
8r}
{8d
=5
4g
8g
8g
4a
4a
=6
2dd
4cc
4b
=7
1a
=8
4g
2r}
==
!!!AGN: ???
!! Melodievergleich zu Q0086, anderes Lied "Odilienlied" .
!!!ONB: ESAC (Essen Associative Code) Database: BALLADE
!!!AMT: simple quadruple
!!!AIN: vox
!!!EED: Helmut Schaffrath
!!!EEV: 1.0
*-
